svg/u1f45c.svg

<svg viewBox="0 0 128 128" xmlns="http://www.w3.org/2000/svg">
  <g>
    <path d="M113.23,45.18c-0.71-2.2-7.11-6.67-10.03-6.67c0,0-25.63-1.47-39.2-1.47s-39.2,1.47-39.2,1.47 c-2.92,0-9.32,4.47-10.03,6.67c-6.34,19.57-10.51,58.56-8.02,71.9c0,0,0.6,4.49,4.73,5.31c0,0,20.17,1.6,52.52,1.6 s52.52-1.6,52.52-1.6c3.74-0.77,4.73-5.31,4.73-5.31C123.74,103.75,119.58,64.75,113.23,45.18z" fill="#E6A467"/>
    <path d="M64,43.09c5.01,0,35.82,0.92,45.93,1.13c2.79,0.06,3.16,0.71,3.19,0.71 c-1.07-2.27-6.53-6.97-9.56-7.15c0,0-10-1.47-39.2-1.47s-39.2,1.47-39.2,1.47c-4.15,0.74-9.67,5.2-10.39,7.4 c-0.01,0.02,1.12-0.56,4.66-0.84C27.02,43.72,43.05,43.09,64,43.09z" fill="#784D30"/>
    <path d="M107.66,51.06c0,0-16.7-1.51-43.67-1.51s-43.65,1.51-43.65,1.51c-4.67,13.34-5.99,43.32-5.99,43.32 c5.06-0.13,19.01,3.86,19.68,22.6c0,0,13.86,1.46,29.96,1.46s29.98-1.46,29.98-1.46c0.67-18.75,14.61-22.74,19.68-22.6 C113.65,94.37,112.33,64.4,107.66,51.06z" fill="#A15D38"/>
    <path d="M107.66,51.06c0,0-16.7-1.51-43.67-1.51s-43.65,1.51-43.65,1.51c-4.67,13.34-5.99,43.32-5.99,43.32 c5.06-0.13,19.01,3.86,19.68,22.6c0,0,13.86,1.46,29.96,1.46s29.98-1.46,29.98-1.46c0.67-18.75,14.61-22.74,19.68-22.6 C113.65,94.37,112.33,64.4,107.66,51.06z" fill="#A15D38"/>
    <g>
      <path d="M63.19,72.43l-6.21-6.21c-0.45-0.45-0.45-1.18,0-1.62l6.21-6.21c0.45-0.45,1.18-0.45,1.62,0 l6.21,6.21c0.45,0.45,0.45,1.18,0,1.62l-6.21,6.21C64.36,72.88,63.64,72.88,63.19,72.43z" fill="#F6BC41"/>
      <path d="M63.82,59.12c0,0,0.84,1.6-0.13,2.73c-0.79,0.93-2.6,2.89-3.51,3.71 c-0.9,0.82-2.65-0.11-2.65-0.11L63.82,59.12z" fill="#FFF176"/>
    </g>
    <path d="M110.17,41.5c-0.97-0.88-1.48-1.3-2.37-1.87c-37.73-1.61-72.14-0.7-87.5,0.21 c-0.87,0.44-1.55,1.13-2.46,1.8C32.1,40.72,68.38,39.53,110.17,41.5z" fill="#3E2723"/>
  </g>
  <g>
    <path d="M97.4,60.93c-0.01-0.65-0.67-2.24-1.12-2.71c-0.96-1.02-2.65-1.12-3.46-5.4 C92.56,51.27,90.23,4,63.95,4S35.4,48.28,35.15,50c-1.02,7.12-1.74,6.55-3.28,7.63c-1.46,1.03-1.98,2.19-2.14,4.29l-0.68,17.11 c0,2,0.79,2.57,3.16,2.89l8.23,0.33c2.42,0,2.65-2.3,2.67-3.14l0.39-16.6c0.05-2.46-0.78-3.66-1.07-4.18 c-0.94-1.68-1.88-2.55-0.77-9.27c0.13-1.05,3.7-38.73,22.16-38.73s22.62,39.57,22.88,42.47c0.09,5.09-0.35,4.8-1.41,5.48 c-1.87,1.2-1.16,3.66-1.16,3.66c0.07,8.11,0.82,19.36,1.25,19.22c0.02,0.83,0.7,1.49,1.53,1.49h9.37c3.15,0,2.44-3.1,2.44-3.1 C98.54,69.31,97.4,60.93,97.4,60.93z" fill="#E6A467"/>
    <g>
      <path d="M30.53,80.86c-1.28-1.08,0.2-17.48,0.21-18.65c0.01-0.39-0.01-2.48,1.61-3.91 c1.15-1.02,2.32-1.25,2.75-5.59c0.42-4.26,0.64-9.19,0.64-9.19s-0.89,4.03-1.58,7.59c-0.91,4.64-1.08,4.54-2.72,5.71 c-1.26,0.9-2.2,2.37-2.38,4.92c-0.17,2.43-1.03,16.13-1.06,17.7c-0.03,2.03,1.1,2.45,1.25,2.83L30.53,80.86z" fill="#FFC697"/>
      <path d="M88.8,81.61c-0.5,0.01-2.4,0.43-2.87-1.27c-0.23-0.81-0.65-12.57-0.86-16.66 c-0.18-3.5-0.35-3.88,1.73-5.78c1.15-1.05,1.05-2.82,0.45-6.75c-0.76-5.06-1.85-7.42-1.85-7.42s0.32,3.02,0.53,6.98 c0.16,3.05,0.85,4.88-1.17,6.89c-1.88,1.87-1.71,3.4-1.69,4.36c0.09,3.69,0.69,15.54,0.88,17.28c0.14,1.27-0.14,3.13,2.21,4.36 C86.79,83.93,88.1,81.62,88.8,81.61z" fill="#FFC697"/>
    </g>
    <g>
      <path d="M93.54,43.83l-1.76-0.1c0.38,2.43,0.64,4.68,0.81,6.4c0.76,0.03,1.5,0.07,2.21,0.1 C94.55,48.65,94.2,46.45,93.54,43.83z" fill="#A15D38"/>
      <path d="M95.26,58.47c1.39,1.39,1.39,3.19,1.54,5.11c0.15,1.92,1.22,14.97,1.27,15.71 c0.05,0.74-0.2,2.36-2.06,2.32h-9.08c-0.21,0-0.39-0.15-0.44-0.34c-0.44,0.7-0.84,1.34-1.17,1.87c0.45,0.36,1.01,0.58,1.62,0.58 H97.2c2.86,0,2.81-2.91,2.81-2.91c-0.17-9.86-1.41-18.7-1.49-19.48c-0.06-1.65-0.54-2.89-1.92-4.48c-1.8-2.09-1.8-6.61-1.8-6.61 c-0.71-0.03-1.45-0.07-2.21-0.1c0.12,1.19,0.19,2.13,0.24,2.68C93.11,55.74,93.88,57.08,95.26,58.47z" fill="#3E2723"/>
      <path d="M45.52,16.5c0,0,0-0.01,0.01-0.01l0.01-0.03C45.54,16.45,45.53,16.47,45.52,16.5z" fill="#3E2723"/>
      <path d="M44.31,43.29l-1.83-0.06c-0.69,2.53-1.14,4.76-1.41,6.7c0.66-0.02,1.33-0.04,2.02-0.07 C43.32,48.01,43.7,45.84,44.31,43.29z" fill="#A15D38"/>
      <path d="M41.59,58.55c0.18,0.33,1.32,1.69,1.22,3.58l-0.48,16.73c-0.07,1.25-0.92,2.27-1.81,2.27l-10-0.28 l-1.28,1.4c0,0,1.06,0.74,4.75,0.74l7.54-0.06c1.41,0,2.58-1.14,2.61-2.55l0.45-18.98c0.02-0.81-0.41-2.28-0.8-3.03 c-0.82-1.56-2.23-2.74-0.7-8.51c-0.69,0.02-1.36,0.04-2.02,0.07C40.42,54.73,40.05,55.75,41.59,58.55z" fill="#3E2723"/>
    </g>
    <path d="M47.03,18.27c-0.7,1.11-2.51,1.82-2.15,0.03c0.47-2.37,2.74-5.75,5.1-7.86 c1.52-1.36,3.45-2.96,5.46-3.47c1.17-0.43,3.28,0.45,2.52,1.9c-1.75,1.43-3.91,2.15-5.62,3.71C50.33,14.26,48.15,16.5,47.03,18.27 z" fill="#FFC697"/>
  </g>
</svg>

<svg viewBox="0 0 128 128" xmlns="http://www.w3.org/2000/svg">
  <defs/>
  <path d="M113.23,45.18 C112.52,42.98 106.12,38.51 103.2,38.51 C103.2,38.51 77.57,37.04 64,37.04 C50.43,37.04 24.8,38.51 24.8,38.51 C21.88,38.51 15.48,42.98 14.77,45.18 C8.43,64.75 4.26,103.74 6.75,117.08 C6.75,117.08 7.35,121.57 11.48,122.39 C11.48,122.39 31.65,123.99 64,123.99 C96.35,123.99 116.52,122.39 116.52,122.39 C120.26,121.62 121.25,117.08 121.25,117.08 C123.74,103.75 119.58,64.75 113.23,45.18 Z" fill="#E6A467"/>
  <path d="M64,43.09 C69.01,43.09 99.82,44.01 109.93,44.22 C112.72,44.28 113.09,44.93 113.12,44.93 C112.05,42.66 106.59,37.96 103.56,37.78 C103.56,37.78 93.56,36.31 64.36,36.31 C35.16,36.31 25.16,37.78 25.16,37.78 C21.01,38.52 15.49,42.98 14.77,45.18 C14.76,45.2 15.89,44.62 19.43,44.34 C27.02,43.72 43.05,43.09 64,43.09 Z" fill="#784D30"/>
  <path d="M107.66,51.06 C107.66,51.06 90.96,49.55 63.99,49.55 C37.02,49.55 20.34,51.06 20.34,51.06 C15.67,64.4 14.35,94.38 14.35,94.38 C19.41,94.25 33.36,98.24 34.03,116.98 C34.03,116.98 47.89,118.44 63.99,118.44 C80.09,118.44 93.97,116.98 93.97,116.98 C94.64,98.23 108.58,94.24 113.65,94.38 C113.65,94.37 112.33,64.4 107.66,51.06 Z" fill="#A15D38"/>
  <path d="M107.66,51.06 C107.66,51.06 90.96,49.55 63.99,49.55 C37.02,49.55 20.34,51.06 20.34,51.06 C15.67,64.4 14.35,94.38 14.35,94.38 C19.41,94.25 33.36,98.24 34.03,116.98 C34.03,116.98 47.89,118.44 63.99,118.44 C80.09,118.44 93.97,116.98 93.97,116.98 C94.64,98.23 108.58,94.24 113.65,94.38 C113.65,94.37 112.33,64.4 107.66,51.06 Z" fill="#A15D38"/>
  <path d="M63.19,72.43 L56.98,66.22 C56.53,65.77 56.53,65.04 56.98,64.6 L63.19,58.39 C63.64,57.94 64.37,57.94 64.81,58.39 L71.02,64.6 C71.47,65.05 71.47,65.78 71.02,66.22 L64.81,72.43 C64.36,72.88 63.64,72.88 63.19,72.43 Z" fill="#F6BC41"/>
  <path d="M63.82,59.12 C63.82,59.12 64.66,60.72 63.69,61.85 C62.9,62.78 61.09,64.74 60.18,65.56 C59.28,66.38 57.53,65.45 57.53,65.45 L63.82,59.12 Z" fill="#FFF176"/>
  <path d="M110.17,41.5 C109.2,40.62 108.69,40.2 107.8,39.63 C70.07,38.02 35.66,38.93 20.3,39.84 C19.43,40.28 18.75,40.97 17.84,41.64 C32.1,40.72 68.38,39.53 110.17,41.5 Z" fill="#3E2723"/>
  <path d="M97.4,60.93 C97.39,60.28 96.73,58.69 96.28,58.22 C95.32,57.2 93.63,57.1 92.82,52.82 C92.56,51.27 90.23,4 63.95,4 C37.67,4 35.4,48.28 35.15,50 C34.13,57.12 33.41,56.55 31.87,57.63 C30.41,58.66 29.89,59.82 29.73,61.92 L29.05,79.03 C29.05,81.03 29.84,81.6 32.21,81.92 L40.44,82.25 C42.86,82.25 43.09,79.95 43.11,79.11 L43.5,62.51 C43.55,60.05 42.72,58.85 42.43,58.33 C41.49,56.65 40.55,55.78 41.66,49.06 C41.79,48.01 45.36,10.33 63.82,10.33 C82.28,10.33 86.44,49.9 86.7,52.8 C86.79,57.89 86.35,57.6 85.29,58.28 C83.42,59.48 84.13,61.94 84.13,61.94 C84.2,70.05 84.95,81.3 85.38,81.16 C85.4,81.99 86.08,82.65 86.91,82.65 L96.28,82.65 C99.43,82.65 98.72,79.55 98.72,79.55 C98.54,69.31 97.4,60.93 97.4,60.93 Z" fill="#E6A467"/>
  <path d="M30.53,80.86 C29.25,79.78 30.73,63.38 30.74,62.21 C30.75,61.82 30.73,59.73 32.35,58.3 C33.5,57.28 34.67,57.05 35.1,52.71 C35.52,48.45 35.74,43.52 35.74,43.52 C35.74,43.52 34.85,47.55 34.16,51.11 C33.25,55.75 33.08,55.65 31.44,56.82 C30.18,57.72 29.24,59.19 29.06,61.74 C28.89,64.17 28.03,77.87 28,79.44 C27.97,81.47 29.1,81.89 29.25,82.27 L30.53,80.86 Z" fill="#FFC697"/>
  <path d="M88.8,81.61 C88.3,81.62 86.4,82.04 85.93,80.34 C85.7,79.53 85.28,67.77 85.07,63.68 C84.89,60.18 84.72,59.8 86.8,57.9 C87.95,56.85 87.85,55.08 87.25,51.15 C86.49,46.09 85.4,43.73 85.4,43.73 C85.4,43.73 85.72,46.75 85.93,50.71 C86.09,53.76 86.78,55.59 84.76,57.6 C82.88,59.47 83.05,61 83.07,61.96 C83.16,65.65 83.76,77.5 83.95,79.24 C84.09,80.51 83.81,82.37 86.16,83.6 C86.79,83.93 88.1,81.62 88.8,81.61 Z" fill="#FFC697"/>
  <path d="M93.54,43.83 L91.78,43.73 C92.16,46.16 92.42,48.41 92.59,50.13 C93.35,50.16 94.09,50.2 94.8,50.23 C94.55,48.65 94.2,46.45 93.54,43.83 Z" fill="#A15D38"/>
  <path d="M95.26,58.47 C96.65,59.86 96.65,61.66 96.8,63.58 C96.95,65.5 98.02,78.55 98.07,79.29 C98.12,80.03 97.87,81.65 96.01,81.61 L86.93,81.61 C86.72,81.61 86.54,81.46 86.49,81.27 C86.05,81.97 85.65,82.61 85.32,83.14 C85.77,83.5 86.33,83.72 86.94,83.72 L97.2,83.72 C100.06,83.72 100.01,80.81 100.01,80.81 C99.84,70.95 98.6,62.11 98.52,61.33 C98.46,59.68 97.98,58.44 96.6,56.85 C94.8,54.76 94.8,50.24 94.8,50.24 C94.09,50.21 93.35,50.17 92.59,50.14 C92.71,51.33 92.78,52.27 92.83,52.82 C93.11,55.74 93.88,57.08 95.26,58.47 Z" fill="#3E2723"/>
  <path d="M45.52,16.5 C45.52,16.5 45.52,16.49 45.53,16.49 L45.54,16.46 C45.54,16.45 45.53,16.47 45.52,16.5 Z" fill="#3E2723"/>
  <path d="M44.31,43.29 L42.48,43.23 C41.79,45.76 41.34,47.99 41.07,49.93 C41.73,49.91 42.4,49.89 43.09,49.86 C43.32,48.01 43.7,45.84 44.31,43.29 Z" fill="#A15D38"/>
  <path d="M41.59,58.55 C41.77,58.88 42.91,60.24 42.81,62.13 L42.33,78.86 C42.26,80.11 41.41,81.13 40.52,81.13 L30.52,80.85 L29.24,82.25 C29.24,82.25 30.3,82.99 33.99,82.99 L41.53,82.93 C42.94,82.93 44.11,81.79 44.14,80.38 L44.59,61.4 C44.61,60.59 44.18,59.12 43.79,58.37 C42.97,56.81 41.56,55.63 43.09,49.86 C42.4,49.88 41.73,49.9 41.07,49.93 C40.42,54.73 40.05,55.75 41.59,58.55 Z" fill="#3E2723"/>
  <path d="M47.03,18.27 C46.33,19.38 44.52,20.09 44.88,18.3 C45.35,15.93 47.62,12.55 49.98,10.44 C51.5,9.08 53.43,7.48 55.44,6.97 C56.61,6.54 58.72,7.42 57.96,8.87 C56.21,10.3 54.05,11.02 52.34,12.58 C50.33,14.26 48.15,16.5 47.03,18.27 Z" fill="#FFC697"/>
</svg>
